X:161
T:Good Morning to Your Nightcap
T:Good Morning, Nightcap
T:Shifting Gravel
R:reel
D:Matt Molloy: Heathery Breeze
D:Four Men and a Dog: Shifting Gravel
D:Kevin Burke: If the Cap Fits
Z:id:hn-reel-161
M:C|
K:Ador
e3c d3B|cBcd (3efe d2|e2ec d2dB|cABG EGD2|
e3c d3B|cBcd (3efe d2|(3efg fa gedB|cABG EGD2:|
|:EAAc BGGB|cBcd (3efe d2|eA~A2 BG~G2|BGAG EGD2|
EAAc BGGB|cBcd (3efe d2|(3efg fa gedB|cABG EGD2:|
P:Variations:
|:~e3c dG (3Bcd|cBcd (3efe d2|edce dc (3Bcd|cABG EGD2|
ecec dedB|cBcd ecd2|eg (3fga gedB|cABG (3EFE D2:|
|:~A3c BG~G2|cBcd (3efe d2|eA~A2 BG~G2|BAAG EGD2|
~A3c BG~G2|cBcd (3efe d2|(3efg (3fga gedB|cABG (3EFE D2:|

